images/3247275.svg

<?xml version="1.0" encoding="UTF-8"?>
<svg xmlns="http://www.w3.org/2000/svg" xmlns:xlink="http://www.w3.org/1999/xlink" width="300pt" height="300pt" viewBox="0 0 300 300" version="1.1">
<defs>
<g>
<symbol overflow="visible" id="glyph0-0">
<path style="stroke:none;" d="M 0.453125 1.59375 L 0.453125 -6.34375 L 4.953125 -6.34375 L 4.953125 1.59375 Z M 0.953125 1.09375 L 4.453125 1.09375 L 4.453125 -5.84375 L 0.953125 -5.84375 Z M 0.953125 1.09375 "/>
</symbol>
<symbol overflow="visible" id="glyph0-1">
<path style="stroke:none;" d="M 0.890625 -6.5625 L 2.078125 -6.5625 L 4.984375 -1.078125 L 4.984375 -6.5625 L 5.84375 -6.5625 L 5.84375 0 L 4.65625 0 L 1.75 -5.484375 L 1.75 0 L 0.890625 0 Z M 0.890625 -6.5625 "/>
</symbol>
<symbol overflow="visible" id="glyph0-2">
<path style="stroke:none;" d="M 0.890625 -6.5625 L 1.765625 -6.5625 L 1.765625 -3.875 L 5 -3.875 L 5 -6.5625 L 5.890625 -6.5625 L 5.890625 0 L 5 0 L 5 -3.125 L 1.765625 -3.125 L 1.765625 0 L 0.890625 0 Z M 0.890625 -6.5625 "/>
</symbol>
<symbol overflow="visible" id="glyph0-3">
<path style="stroke:none;" d="M 3.546875 -5.953125 C 2.898438 -5.953125 2.382812 -5.710938 2 -5.234375 C 1.625 -4.753906 1.4375 -4.101562 1.4375 -3.28125 C 1.4375 -2.445312 1.625 -1.789062 2 -1.3125 C 2.382812 -0.832031 2.898438 -0.59375 3.546875 -0.59375 C 4.191406 -0.59375 4.703125 -0.832031 5.078125 -1.3125 C 5.453125 -1.789062 5.640625 -2.445312 5.640625 -3.28125 C 5.640625 -4.101562 5.453125 -4.753906 5.078125 -5.234375 C 4.703125 -5.710938 4.191406 -5.953125 3.546875 -5.953125 Z M 3.546875 -6.6875 C 4.460938 -6.6875 5.195312 -6.375 5.75 -5.75 C 6.300781 -5.132812 6.578125 -4.3125 6.578125 -3.28125 C 6.578125 -2.238281 6.300781 -1.410156 5.75 -0.796875 C 5.195312 -0.179688 4.460938 0.125 3.546875 0.125 C 2.617188 0.125 1.878906 -0.179688 1.328125 -0.796875 C 0.773438 -1.410156 0.5 -2.238281 0.5 -3.28125 C 0.5 -4.3125 0.773438 -5.132812 1.328125 -5.75 C 1.878906 -6.375 2.617188 -6.6875 3.546875 -6.6875 Z M 3.546875 -6.6875 "/>
</symbol>
</g>
</defs>
<g id="surface42597">
<rect x="0" y="0" width="300" height="300" style="fill:rgb(100%,100%,100%);fill-opacity:1;stroke:none;"/>
<path style=" stroke:none;fill-rule:nonzero;fill:rgb(0%,0%,0%);fill-opacity:1;" d="M 153.828125 98.515625 L 149.832031 121.339844 L 157.882812 121.328125 Z M 153.828125 98.515625 "/>
<path style="fill:none;stroke-width:1.2;stroke-linecap:butt;stroke-linejoin:miter;stroke:rgb(0%,0%,0%);stroke-opacity:1;stroke-miterlimit:10;" d="M 153.828125 98.515625 L 173.574219 87.078125 "/>
<path style="fill:none;stroke-width:1.2;stroke-linecap:butt;stroke-linejoin:miter;stroke:rgb(0%,0%,0%);stroke-opacity:1;stroke-miterlimit:10;" d="M 153.828125 98.515625 L 134.046875 87.132812 "/>
<path style="fill:none;stroke-width:1;stroke-linecap:butt;stroke-linejoin:miter;stroke:rgb(0%,0%,0%);stroke-opacity:1;stroke-miterlimit:10;" d="M 173.574219 87.078125 L 173.574219 87.078125 M 175.5 84.777344 L 174.597656 84.257812 M 177.425781 82.476562 L 175.617188 81.4375 M 179.351562 80.175781 L 176.640625 78.617188 M 181.277344 77.875 L 177.660156 75.796875 M 183.203125 75.578125 L 178.683594 72.976562 M 185.128906 73.277344 L 179.707031 70.15625 M 187.054688 70.976562 L 180.726562 67.335938 M 188.449219 69.308594 L 181.46875 65.292969 "/>
<path style="fill:none;stroke-width:1.2;stroke-linecap:butt;stroke-linejoin:miter;stroke:rgb(0%,0%,0%);stroke-opacity:1;stroke-miterlimit:10;" d="M 196.394531 87.046875 L 173.574219 87.078125 "/>
<path style="fill:none;stroke-width:1.2;stroke-linecap:butt;stroke-linejoin:miter;stroke:rgb(0%,0%,0%);stroke-opacity:1;stroke-miterlimit:10;" d="M 184.957031 67.300781 L 196.394531 87.046875 "/>
<path style="fill:none;stroke-width:1;stroke-linecap:butt;stroke-linejoin:miter;stroke:rgb(0%,0%,0%);stroke-opacity:1;stroke-miterlimit:10;" d="M 196.394531 87.046875 L 196.394531 87.046875 M 199.347656 86.523438 L 198.988281 85.542969 M 202.300781 86 L 201.585938 84.039062 M 205.253906 85.472656 L 204.179688 82.535156 M 208.210938 84.949219 L 206.777344 81.03125 M 211.164062 84.425781 L 209.375 79.527344 M 214.117188 83.902344 L 211.96875 78.023438 M 217.070312 83.375 L 214.566406 76.519531 M 219.210938 82.996094 L 216.445312 75.433594 "/>
<path style="fill:none;stroke-width:1.2;stroke-linecap:butt;stroke-linejoin:miter;stroke:rgb(0%,0%,0%);stroke-opacity:1;stroke-miterlimit:10;" d="M 196.394531 87.046875 L 200.386719 109.515625 "/>
<path style="fill:none;stroke-width:1;stroke-linecap:butt;stroke-linejoin:miter;stroke:rgb(0%,0%,0%);stroke-opacity:1;stroke-miterlimit:10;" d="M 200.386719 109.515625 L 200.386719 109.515625 M 202.988281 111.011719 L 203.34375 110.03125 M 205.585938 112.507812 L 206.296875 110.550781 M 208.1875 114.007812 L 209.253906 111.066406 M 210.785156 115.503906 L 212.207031 111.582031 M 213.386719 117 L 215.164062 112.097656 M 215.984375 118.496094 L 218.117188 112.617188 M 218.585938 119.992188 L 221.074219 113.132812 M 220.46875 121.078125 L 223.214844 113.507812 "/>
<path style="fill:none;stroke-width:1.2;stroke-linecap:butt;stroke-linejoin:miter;stroke:rgb(0%,0%,0%);stroke-opacity:1;stroke-miterlimit:10;" d="M 200.386719 109.515625 L 191.65625 116.863281 "/>
<path style="fill:none;stroke-width:1.2;stroke-linecap:butt;stroke-linejoin:miter;stroke:rgb(0%,0%,100%);stroke-opacity:1;stroke-miterlimit:10;" d="M 191.65625 116.863281 L 182.925781 124.207031 "/>
<path style="fill:none;stroke-width:1.2;stroke-linecap:butt;stroke-linejoin:miter;stroke:rgb(0%,0%,0%);stroke-opacity:1;stroke-miterlimit:10;" d="M 221.839844 117.292969 L 225.835938 139.761719 "/>
<path style="fill:none;stroke-width:1.2;stroke-linecap:butt;stroke-linejoin:miter;stroke:rgb(0%,0%,0%);stroke-opacity:1;stroke-miterlimit:10;" d="M 227.527344 118.597656 L 230.722656 136.574219 "/>
<path style="fill:none;stroke-width:1.2;stroke-linecap:butt;stroke-linejoin:miter;stroke:rgb(0%,0%,0%);stroke-opacity:1;stroke-miterlimit:10;" d="M 239.300781 102.601562 L 221.839844 117.292969 "/>
<path style="fill:none;stroke-width:1.2;stroke-linecap:butt;stroke-linejoin:miter;stroke:rgb(0%,0%,0%);stroke-opacity:1;stroke-miterlimit:10;" d="M 225.835938 139.761719 L 247.289062 147.535156 "/>
<path style="fill:none;stroke-width:1.2;stroke-linecap:butt;stroke-linejoin:miter;stroke:rgb(0%,0%,0%);stroke-opacity:1;stroke-miterlimit:10;" d="M 247.289062 147.535156 L 264.75 132.84375 "/>
<path style="fill:none;stroke-width:1.2;stroke-linecap:butt;stroke-linejoin:miter;stroke:rgb(0%,0%,0%);stroke-opacity:1;stroke-miterlimit:10;" d="M 245.578125 141.957031 L 259.546875 130.203125 "/>
<path style="fill:none;stroke-width:1.2;stroke-linecap:butt;stroke-linejoin:miter;stroke:rgb(0%,0%,0%);stroke-opacity:1;stroke-miterlimit:10;" d="M 264.75 132.84375 L 260.757812 110.375 "/>
<path style="fill:none;stroke-width:1.2;stroke-linecap:butt;stroke-linejoin:miter;stroke:rgb(0%,0%,0%);stroke-opacity:1;stroke-miterlimit:10;" d="M 260.757812 110.375 L 239.300781 102.601562 "/>
<path style="fill:none;stroke-width:1.2;stroke-linecap:butt;stroke-linejoin:miter;stroke:rgb(0%,0%,0%);stroke-opacity:1;stroke-miterlimit:10;" d="M 256.78125 114.648438 L 239.617188 108.425781 "/>
<path style="fill:none;stroke-width:1.2;stroke-linecap:butt;stroke-linejoin:miter;stroke:rgb(0%,0%,100%);stroke-opacity:1;stroke-miterlimit:10;" d="M 182.925781 124.207031 L 184.921875 135.441406 "/>
<path style="fill:none;stroke-width:1.2;stroke-linecap:butt;stroke-linejoin:miter;stroke:rgb(0%,0%,0%);stroke-opacity:1;stroke-miterlimit:10;" d="M 184.921875 135.441406 L 186.917969 146.675781 "/>
<path style=" stroke:none;fill-rule:nonzero;fill:rgb(100%,100%,100%);fill-opacity:1;" d="M 175.925781 118.707031 L 189.925781 118.707031 L 189.925781 129.707031 L 175.925781 129.707031 Z M 175.925781 118.707031 "/>
<g style="fill:rgb(0%,0%,100%);fill-opacity:1;">
  <use xlink:href="#glyph0-1" x="175.925781" y="127.370117"/>
  <use xlink:href="#glyph0-2" x="182.90332" y="127.370117"/>
</g>
<path style="fill:none;stroke-width:1.2;stroke-linecap:butt;stroke-linejoin:miter;stroke:rgb(0%,0%,0%);stroke-opacity:1;stroke-miterlimit:10;" d="M 186.003906 149.199219 L 196.730469 153.089844 "/>
<path style="fill:none;stroke-width:1.2;stroke-linecap:butt;stroke-linejoin:miter;stroke:rgb(100%,0%,0%);stroke-opacity:1;stroke-miterlimit:10;" d="M 196.730469 153.089844 L 207.457031 156.976562 "/>
<path style="fill:none;stroke-width:1.2;stroke-linecap:butt;stroke-linejoin:miter;stroke:rgb(0%,0%,0%);stroke-opacity:1;stroke-miterlimit:10;" d="M 187.832031 144.152344 L 198.558594 148.039062 "/>
<path style="fill:none;stroke-width:1.2;stroke-linecap:butt;stroke-linejoin:miter;stroke:rgb(100%,0%,0%);stroke-opacity:1;stroke-miterlimit:10;" d="M 198.558594 148.039062 L 209.289062 151.929688 "/>
<path style="fill:none;stroke-width:1.2;stroke-linecap:butt;stroke-linejoin:miter;stroke:rgb(0%,0%,0%);stroke-opacity:1;stroke-miterlimit:10;" d="M 186.917969 146.675781 L 178.1875 154.023438 "/>
<path style="fill:none;stroke-width:1.2;stroke-linecap:butt;stroke-linejoin:miter;stroke:rgb(100%,0%,0%);stroke-opacity:1;stroke-miterlimit:10;" d="M 178.1875 154.023438 L 169.457031 161.367188 "/>
<path style=" stroke:none;fill-rule:nonzero;fill:rgb(100%,100%,100%);fill-opacity:1;" d="M 204.371094 148.953125 L 212.371094 148.953125 L 212.371094 159.953125 L 204.371094 159.953125 Z M 204.371094 148.953125 "/>
<g style="fill:rgb(100%,0%,0%);fill-opacity:1;">
  <use xlink:href="#glyph0-3" x="204.371094" y="157.616211"/>
</g>
<path style="fill:none;stroke-width:1.2;stroke-linecap:butt;stroke-linejoin:miter;stroke:rgb(100%,0%,0%);stroke-opacity:1;stroke-miterlimit:10;" d="M 169.457031 161.367188 L 171.453125 172.601562 "/>
<path style="fill:none;stroke-width:1.2;stroke-linecap:butt;stroke-linejoin:miter;stroke:rgb(0%,0%,0%);stroke-opacity:1;stroke-miterlimit:10;" d="M 171.453125 172.601562 L 173.449219 183.835938 "/>
<path style=" stroke:none;fill-rule:nonzero;fill:rgb(100%,100%,100%);fill-opacity:1;" d="M 165.457031 155.867188 L 173.457031 155.867188 L 173.457031 166.867188 L 165.457031 166.867188 Z M 165.457031 155.867188 "/>
<g style="fill:rgb(100%,0%,0%);fill-opacity:1;">
  <use xlink:href="#glyph0-3" x="165.457031" y="164.530273"/>
</g>
<path style="fill:none;stroke-width:1.2;stroke-linecap:butt;stroke-linejoin:miter;stroke:rgb(0%,0%,0%);stroke-opacity:1;stroke-miterlimit:10;" d="M 173.449219 183.835938 L 155.988281 198.527344 "/>
<path style="fill:none;stroke-width:1.2;stroke-linecap:butt;stroke-linejoin:miter;stroke:rgb(0%,0%,0%);stroke-opacity:1;stroke-miterlimit:10;" d="M 155.988281 198.527344 L 159.980469 220.996094 "/>
<path style="fill:none;stroke-width:1.2;stroke-linecap:butt;stroke-linejoin:miter;stroke:rgb(0%,0%,0%);stroke-opacity:1;stroke-miterlimit:10;" d="M 151.101562 201.714844 L 154.296875 219.6875 "/>
<path style="fill:none;stroke-width:1.2;stroke-linecap:butt;stroke-linejoin:miter;stroke:rgb(0%,0%,0%);stroke-opacity:1;stroke-miterlimit:10;" d="M 134.535156 190.753906 L 155.988281 198.527344 "/>
<path style="fill:none;stroke-width:1.2;stroke-linecap:butt;stroke-linejoin:miter;stroke:rgb(0%,0%,0%);stroke-opacity:1;stroke-miterlimit:10;" d="M 159.980469 220.996094 L 142.519531 235.6875 "/>
<path style="fill:none;stroke-width:1.2;stroke-linecap:butt;stroke-linejoin:miter;stroke:rgb(0%,0%,0%);stroke-opacity:1;stroke-miterlimit:10;" d="M 142.519531 235.6875 L 121.066406 227.910156 "/>
<path style="fill:none;stroke-width:1.2;stroke-linecap:butt;stroke-linejoin:miter;stroke:rgb(0%,0%,0%);stroke-opacity:1;stroke-miterlimit:10;" d="M 142.203125 229.863281 L 125.039062 223.640625 "/>
<path style="fill:none;stroke-width:1.2;stroke-linecap:butt;stroke-linejoin:miter;stroke:rgb(0%,0%,0%);stroke-opacity:1;stroke-miterlimit:10;" d="M 121.066406 227.910156 L 117.074219 205.445312 "/>
<path style="fill:none;stroke-width:1.2;stroke-linecap:butt;stroke-linejoin:miter;stroke:rgb(0%,0%,0%);stroke-opacity:1;stroke-miterlimit:10;" d="M 117.074219 205.445312 L 134.535156 190.753906 "/>
<path style="fill:none;stroke-width:1.2;stroke-linecap:butt;stroke-linejoin:miter;stroke:rgb(0%,0%,0%);stroke-opacity:1;stroke-miterlimit:10;" d="M 122.277344 208.082031 L 136.246094 196.328125 "/>
<path style="fill:none;stroke-width:1.2;stroke-linecap:butt;stroke-linejoin:miter;stroke:rgb(0%,0%,0%);stroke-opacity:1;stroke-miterlimit:10;" d="M 136.734375 87.128906 L 136.71875 75.71875 "/>
<path style="fill:none;stroke-width:1.2;stroke-linecap:butt;stroke-linejoin:miter;stroke:rgb(100%,0%,0%);stroke-opacity:1;stroke-miterlimit:10;" d="M 136.71875 75.71875 L 136.703125 64.308594 "/>
<path style="fill:none;stroke-width:1.2;stroke-linecap:butt;stroke-linejoin:miter;stroke:rgb(0%,0%,0%);stroke-opacity:1;stroke-miterlimit:10;" d="M 131.363281 87.136719 L 131.347656 75.726562 "/>
<path style="fill:none;stroke-width:1.2;stroke-linecap:butt;stroke-linejoin:miter;stroke:rgb(100%,0%,0%);stroke-opacity:1;stroke-miterlimit:10;" d="M 131.347656 75.726562 L 131.332031 64.316406 "/>
<path style="fill:none;stroke-width:1.2;stroke-linecap:butt;stroke-linejoin:miter;stroke:rgb(0%,0%,0%);stroke-opacity:1;stroke-miterlimit:10;" d="M 134.046875 87.132812 L 124.175781 92.851562 "/>
<path style="fill:none;stroke-width:1.2;stroke-linecap:butt;stroke-linejoin:miter;stroke:rgb(0%,0%,100%);stroke-opacity:1;stroke-miterlimit:10;" d="M 124.175781 92.851562 L 114.300781 98.570312 "/>
<path style=" stroke:none;fill-rule:nonzero;fill:rgb(100%,100%,100%);fill-opacity:1;" d="M 130.019531 58.8125 L 138.019531 58.8125 L 138.019531 69.8125 L 130.019531 69.8125 Z M 130.019531 58.8125 "/>
<g style="fill:rgb(100%,0%,0%);fill-opacity:1;">
  <use xlink:href="#glyph0-3" x="130.019531" y="67.475586"/>
</g>
<path style="fill:none;stroke-width:1.2;stroke-linecap:butt;stroke-linejoin:miter;stroke:rgb(0%,0%,100%);stroke-opacity:1;stroke-miterlimit:10;" d="M 114.300781 98.570312 L 104.410156 92.875 "/>
<path style="fill:none;stroke-width:1.2;stroke-linecap:butt;stroke-linejoin:miter;stroke:rgb(0%,0%,0%);stroke-opacity:1;stroke-miterlimit:10;" d="M 104.410156 92.875 L 94.523438 87.183594 "/>
<path style=" stroke:none;fill-rule:nonzero;fill:rgb(100%,100%,100%);fill-opacity:1;" d="M 107.300781 93.070312 L 121.300781 93.070312 L 121.300781 104.070312 L 107.300781 104.070312 Z M 107.300781 93.070312 "/>
<g style="fill:rgb(0%,0%,100%);fill-opacity:1;">
  <use xlink:href="#glyph0-1" x="107.300781" y="101.733398"/>
  <use xlink:href="#glyph0-2" x="114.27832" y="101.733398"/>
</g>
<path style="fill:none;stroke-width:1.2;stroke-linecap:butt;stroke-linejoin:miter;stroke:rgb(0%,0%,0%);stroke-opacity:1;stroke-miterlimit:10;" d="M 94.523438 87.183594 L 74.777344 98.621094 "/>
<path style="fill:none;stroke-width:1.2;stroke-linecap:butt;stroke-linejoin:miter;stroke:rgb(0%,0%,0%);stroke-opacity:1;stroke-miterlimit:10;" d="M 74.777344 98.621094 L 64.886719 92.929688 "/>
<path style="fill:none;stroke-width:1.2;stroke-linecap:butt;stroke-linejoin:miter;stroke:rgb(100%,0%,0%);stroke-opacity:1;stroke-miterlimit:10;" d="M 64.886719 92.929688 L 54.996094 87.238281 "/>
<path style="fill:none;stroke-width:1.2;stroke-linecap:butt;stroke-linejoin:miter;stroke:rgb(100%,0%,0%);stroke-opacity:1;stroke-miterlimit:10;" d="M 54.996094 87.238281 L 45.125 92.957031 "/>
<path style="fill:none;stroke-width:1.2;stroke-linecap:butt;stroke-linejoin:miter;stroke:rgb(0%,0%,0%);stroke-opacity:1;stroke-miterlimit:10;" d="M 45.125 92.957031 L 35.25 98.675781 "/>
<path style=" stroke:none;fill-rule:nonzero;fill:rgb(100%,100%,100%);fill-opacity:1;" d="M 50.996094 81.738281 L 58.996094 81.738281 L 58.996094 92.738281 L 50.996094 92.738281 Z M 50.996094 81.738281 "/>
<g style="fill:rgb(100%,0%,0%);fill-opacity:1;">
  <use xlink:href="#glyph0-3" x="50.996094" y="90.401367"/>
</g>
</g>
</svg>

<svg xmlns="http://www.w3.org/2000/svg" xmlns:xlink="http://www.w3.org/1999/xlink" width="300pt" height="300pt" viewBox="0 0 300 300"><defs><symbol overflow="visible"><path d="M.453 1.594v-7.938h4.5v7.938zm.5-.5h3.5v-6.938h-3.5zm0 0"/></symbol><symbol overflow="visible" id="a"><path d="M.89-6.563H2.08l2.906 5.485v-5.484h.86V0H4.656L1.75-5.484V0H.89zm0 0"/></symbol><symbol overflow="visible" id="b"><path d="M.89-6.563h.876v2.688H5v-2.688h.89V0H5v-3.125H1.766V0H.89zm0 0"/></symbol><symbol overflow="visible" id="c"><path d="M3.547-5.953c-.65 0-1.164.242-1.547.72-.375.48-.563 1.13-.563 1.952 0 .835.188 1.49.563 1.967.383.48.898.72 1.547.72.644 0 1.156-.24 1.53-.72.376-.476.564-1.132.564-1.968 0-.822-.187-1.474-.562-1.954-.375-.477-.887-.72-1.53-.72zm0-.734c.914 0 1.648.312 2.203.937.55.617.828 1.438.828 2.47 0 1.042-.277 1.87-.828 2.483-.555.617-1.29.922-2.203.922-.93 0-1.668-.305-2.22-.922C.774-1.41.5-2.237.5-3.28c0-1.033.273-1.853.828-2.47.55-.625 1.29-.938 2.22-.938zm0 0"/></symbol></defs><g><path fill="#fff" d="M0 0h300v300H0z"/><path d="M153.828 98.516l-3.996 22.824 8.05-.012zm0 0"/><path d="M153.828 98.516l19.746-11.438M153.828 98.516l-19.78-11.383" stroke-width="1.2" stroke="#000" stroke-miterlimit="10" fill="none"/><path d="M173.574 87.078m1.926-2.3l-.902-.52m2.828-1.78l-1.81-1.04m3.736-1.262l-2.71-1.56m4.635-.74l-3.617-2.08m5.543-.218l-4.52-2.6m6.446.3l-5.423-3.122m7.348.82l-6.328-3.64m7.722 1.973l-6.98-4.017" stroke="#000" stroke-miterlimit="10" fill="none"/><path d="M196.395 87.047l-22.82.03M184.957 67.3l11.438 19.747" stroke-width="1.2" stroke="#000" stroke-miterlimit="10" fill="none"/><path d="M196.395 87.047m2.953-.524l-.36-.98M202.3 86l-.714-1.96m3.668 1.433l-1.074-2.938m4.03 2.414l-1.433-3.92m4.387 3.396l-1.79-4.9m4.743 4.376l-2.148-5.88m5.1 5.353l-2.504-6.855m4.645 6.476l-2.765-7.562" stroke="#000" stroke-miterlimit="10" fill="none"/><path d="M196.395 87.047l3.992 22.47" stroke-width="1.2" stroke="#000" stroke-miterlimit="10" fill="none"/><path d="M200.387 109.516m2.6 1.496l.357-.98m2.242 2.476l.71-1.957m1.892 3.458l1.066-2.942m1.53 4.438l1.423-3.922m1.18 5.418l1.777-4.902m.82 6.398l2.133-5.88m.47 7.376l2.487-6.86m-.605 7.946l2.745-7.57" stroke="#000" stroke-miterlimit="10" fill="none"/><path d="M200.387 109.516l-8.73 7.347" stroke-width="1.2" stroke="#000" stroke-miterlimit="10" fill="none"/><path d="M191.656 116.863l-8.73 7.344" stroke-width="1.2" stroke="#00f" stroke-miterlimit="10" fill="none"/><path d="M221.84 117.293l3.996 22.47M227.527 118.598l3.196 17.976M239.3 102.602l-17.46 14.69M225.836 139.762l21.453 7.773M247.29 147.535l17.46-14.69M245.578 141.957l13.97-11.754M264.75 132.844l-3.992-22.47M260.758 110.375l-21.457-7.773M256.78 114.648l-17.163-6.222" stroke-width="1.2" stroke="#000" stroke-miterlimit="10" fill="none"/><path d="M182.926 124.207l1.996 11.234" stroke-width="1.2" stroke="#00f" stroke-miterlimit="10" fill="none"/><path d="M184.922 135.44l1.996 11.236" stroke-width="1.2" stroke="#000" stroke-miterlimit="10" fill="none"/><path d="M175.926 118.707h14v11h-14zm0 0" fill="#fff"/><g fill="#00f"><use xlink:href="#a" x="175.926" y="127.37"/><use xlink:href="#b" x="182.903" y="127.37"/></g><path d="M186.004 149.2l10.726 3.89" stroke-width="1.2" stroke="#000" stroke-miterlimit="10" fill="none"/><path d="M196.73 153.09l10.727 3.887" stroke-width="1.2" stroke="#f00" stroke-miterlimit="10" fill="none"/><path d="M187.832 144.152l10.727 3.887" stroke-width="1.2" stroke="#000" stroke-miterlimit="10" fill="none"/><path d="M198.56 148.04l10.73 3.89" stroke-width="1.2" stroke="#f00" stroke-miterlimit="10" fill="none"/><path d="M186.918 146.676l-8.73 7.347" stroke-width="1.2" stroke="#000" stroke-miterlimit="10" fill="none"/><path d="M178.188 154.023l-8.73 7.344" stroke-width="1.2" stroke="#f00" stroke-miterlimit="10" fill="none"/><path d="M204.37 148.953h8v11h-8zm0 0" fill="#fff"/><use xlink:href="#c" x="204.371" y="157.616" fill="#f00"/><path d="M169.457 161.367l1.996 11.235" stroke-width="1.2" stroke="#f00" stroke-miterlimit="10" fill="none"/><path d="M171.453 172.602l1.996 11.234" stroke-width="1.2" stroke="#000" stroke-miterlimit="10" fill="none"/><path d="M165.457 155.867h8v11h-8zm0 0" fill="#fff"/><use xlink:href="#c" x="165.457" y="164.53" fill="#f00"/><path d="M173.45 183.836l-17.462 14.69M155.988 198.527l3.992 22.47M151.102 201.715l3.195 17.972M134.535 190.754l21.453 7.773M159.98 220.996l-17.46 14.69M142.52 235.688l-21.454-7.778M142.203 229.863l-17.164-6.222M121.066 227.91l-3.992-22.465M117.074 205.445l17.46-14.69M122.277 208.082l13.97-11.754M136.734 87.13l-.015-11.41" stroke-width="1.2" stroke="#000" stroke-miterlimit="10" fill="none"/><path d="M136.72 75.72l-.017-11.41" stroke-width="1.2" stroke="#f00" stroke-miterlimit="10" fill="none"/><path d="M131.363 87.137l-.015-11.41" stroke-width="1.2" stroke="#000" stroke-miterlimit="10" fill="none"/><path d="M131.348 75.727l-.016-11.41" stroke-width="1.2" stroke="#f00" stroke-miterlimit="10" fill="none"/><path d="M134.047 87.133l-9.87 5.72" stroke-width="1.2" stroke="#000" stroke-miterlimit="10" fill="none"/><path d="M124.176 92.852L114.3 98.57" stroke-width="1.2" stroke="#00f" stroke-miterlimit="10" fill="none"/><path d="M130.02 58.813h8v11h-8zm0 0" fill="#fff"/><use xlink:href="#c" x="130.02" y="67.476" fill="#f00"/><path d="M114.3 98.57l-9.89-5.695" stroke-width="1.2" stroke="#00f" stroke-miterlimit="10" fill="none"/><path d="M104.41 92.875l-9.887-5.69" stroke-width="1.2" stroke="#000" stroke-miterlimit="10" fill="none"/><path d="M107.3 93.07h14v11h-14zm0 0" fill="#fff"/><g fill="#00f"><use xlink:href="#a" x="107.301" y="101.733"/><use xlink:href="#b" x="114.278" y="101.733"/></g><path d="M94.523 87.184L74.777 98.62M74.777 98.62l-9.89-5.69" stroke-width="1.2" stroke="#000" stroke-miterlimit="10" fill="none"/><path d="M64.887 92.93l-9.89-5.692M54.996 87.238l-9.87 5.72" stroke-width="1.2" stroke="#f00" stroke-miterlimit="10" fill="none"/><path d="M45.125 92.957l-9.875 5.72" stroke-width="1.2" stroke="#000" stroke-miterlimit="10" fill="none"/><path d="M50.996 81.738h8v11h-8zm0 0" fill="#fff"/><use xlink:href="#c" x="50.996" y="90.401" fill="#f00"/></g></svg>
